assets/images/reset_password/email_reset.svg

<svg viewBox="0 0 335.63 185.17" xmlns="http://www.w3.org/2000/svg"><g stroke="#000" stroke-miterlimit="10"><g stroke-width=".5"><path d="m262 19a18.79 18.79 0 0 0 -18.7-18.75h-224.3a18.79 18.79 0 0 0 -18.75 18.75v140.19a18.79 18.79 0 0 0 18.75 18.73h224.3a18.79 18.79 0 0 0 18.7-18.73z" fill="#638a66"/><path d="m131.14 70.14-130.89 83.73v5.32a18.79 18.79 0 0 0 18.75 18.73h224.3a18.79 18.79 0 0 0 18.7-18.73v-5.32z" fill="#a2bda2"/><path d="m131.14 108 130.86-83.7v-5.3a18.79 18.79 0 0 0 -18.7-18.75h-224.3a18.79 18.79 0 0 0 -18.75 18.75v5.3z" fill="#a2bda2"/><path d="m261 13-129.86 83-129.88-83a18.56 18.56 0 0 0 -1 6v5.3l130.88 83.7 130.86-83.7v-5.3a18.56 18.56 0 0 0 -1-6z" fill="#c0e1d9"/></g><path d="m192.81 114.31 48-48c5.34-5.35 9.72-3.54 9.72 4v21.18h71a13.79 13.79 0 0 1 13.75 13.75v37.58a13.79 13.79 0 0 1 -13.75 13.75h-71v21.12c0 7.56-4.38 9.37-9.72 4l-48-48a13.8 13.8 0 0 1 0-19.38z" fill="#d2977c" stroke-width=".75"/></g></svg>

<svg id="Layer_1" data-name="Layer 1" xmlns="http://www.w3.org/2000/svg" viewBox="0 0 335.63 185.17"><defs><style>.cls-1{fill:#638a66;}.cls-1,.cls-2,.cls-3,.cls-4{stroke:#000;stroke-miterlimit:10;}.cls-1,.cls-2,.cls-3{stroke-width:0.5px;}.cls-2{fill:#a2bda2;}.cls-3{fill:#c0e1d9;}.cls-4{fill:#d2977c;stroke-width:0.75px;}</style></defs><path class="cls-1" d="M262,19A18.79,18.79,0,0,0,243.3.25H19A18.79,18.79,0,0,0,.25,19V159.19A18.79,18.79,0,0,0,19,177.92H243.3A18.79,18.79,0,0,0,262,159.19V19Z"/><path class="cls-2" d="M131.14,70.14.25,153.87v5.32A18.79,18.79,0,0,0,19,177.92H243.3A18.79,18.79,0,0,0,262,159.19v-5.32Z"/><path class="cls-2" d="M131.14,108,262,24.3V19A18.79,18.79,0,0,0,243.3.25H19A18.79,18.79,0,0,0,.25,19V24.3Z"/><path class="cls-3" d="M261,13,131.14,96,1.26,13a18.56,18.56,0,0,0-1,6V24.3L131.14,108,262,24.3V19A18.56,18.56,0,0,0,261,13Z"/><path class="cls-4" d="M192.81,114.31l48-48c5.34-5.35,9.72-3.54,9.72,4V91.49h71a13.79,13.79,0,0,1,13.75,13.75v37.58a13.79,13.79,0,0,1-13.75,13.75h-71v21.12c0,7.56-4.38,9.37-9.72,4l-48-48A13.8,13.8,0,0,1,192.81,114.31Z"/></svg>
